X:1
T:Gleich als der Hirsch
T:Georg Vogler
T:Source : Catechismus---Würzburg---J.Volmari---1652. Editor : André Vierendeels (25/09/17)
T:Notes : Original clefs : C1, F4 Original note values have been quartered Square brackets indicate ligatures Text Middle German
T:Gleich als der Hirsch
T:©
T:©
C:Georg Vogler
Z:©
%%score [ 1 2 ]
L:1/8
Q:1/4=120
M:3/4
K:F
V:1 treble nm="Soprano" snm="S"
V:2 bass nm="Bass" snm="B"
V:1
"^1)" G2 G2 G2 | B4 A2 | A4 G2 | ^F4 z2 | G2 A2 B2 | c4 B2 | G4 ^F2 | !fermata!G4 z2 | G2 B2 B2 | %9
w: Gleich als der|Hirsch zur|Was- ser-|quell,|wann er ge-|schos- sen,|ey- let|schnell:|Al- so der|
w: Ihr Him- mel|ta- wet|o- ben|rab,|die längst von|Gott ver-|sproch- ne|Gab.|Ihr Wol- cken|
 A4 d2 | d4 ^c2 | d4 z2 | d2 d2 d2 | B4 c2 | B4 A2 | !fermata!B6 | B4 c2 | d4 c2 | B2 A2 G2 | ^F6 | %20
w: lie- ben|Vät- ter|Brunst,|von al- ters|her rufft-|nicht umb|sonst,|es woll|doch kom-|men Je- sus|Christ,|
w: re- gnet|all- be-|reyt,|den Leh- ter|der Ge|rech- *|keit,|O Er-|den grü-|ne thu dich|auff,|
 ^F2 G4 | A2 B4 | A2 G4 | ^F2 !fermata!G4 |] %24
w: der ihr,|und un-|ser Hey-|land ist.|
w: Da- mit|ich zu|mein Hey-|land lauff.|
V:2
"^2)""^1)""^3)" G,2 G,2 G,2 | G,4 D,2 | F,4 G,2 | D,4 z2 | D,2 D,2 G,2 | F,4 G,2 | C,2 D,4 | %7
w: Gleich als der|Hirsch zur|Was- ser-|quell,|wann er ge-|schos- sen,|ey- let|
w: Ach Gott zer-|reitz noch|die- sen|Tag,|die Him- mel|steig zu|uns her-|
 !fermata!G,,4 z2 | G,2 G,2 G,2 | A,4 G,2 | B,2 A,4 | D,4 z2 | D,2 D,2 D,2 | G,4 F,2 | B,2 F,4- | %15
w: schnell:|Al- so der|lie- ben|Vät- ter|Brunst,|von al- ters|her rufft|nicht umb-|
w: ab.|O Herz send|doch das|Lämb- lein|werth,|das herz- schen|soll ü-|ber die|
 !fermata!B,,6 | B,,4 F,2 | B,,4 F,2 | G,2 F,2 _E,2 | D,6 | D,2 C,4 | D,2 B,,4 | F,2 G,2 D,2- | %23
w: sonst,|es woll|doch kom-|men Je- sus|Christ,|der ihr,|und un-|ser Hey- land|
w: Erd:|in des-|sen Blut|die Sünd der|Welt,|dir weg|zu- neh-|men wol ge-|
 D,2 !fermata!G,,4 |] %24
w: _ ist.|
w: * fält.|

